wilib/img/svg/mascara_estrela.svg

<svg xmlns="http://www.w3.org/2000/svg" xmlns:xlink="http://www.w3.org/1999/xlink" preserveAspectRatio="none" width="108" height="104" viewBox="0 0 108 104"><defs><path fill="#FFF" d="M31.55 63.3L0 37.9v65.55h85.8L53 79.7l-33.9 22.15L31.55 63.3M54.9 0l12.55 38.5 40.45 2-32.7 23.85 10.6 39.1h22.15V0H54.9M40.5 37.85L54.9 0H0v37.9l40.5-.05z" id="a"/><path id="b" stroke="#CCC" stroke-linejoin="round" stroke-linecap="round" fill="none" d="M0 37.9l40.5-.05L54.9 0M0 37.9l31.55 25.4-12.45 38.55L53 79.7l32.8 23.75-10.6-39.1 32.7-23.85-40.45-2L54.9 0"/></defs><g><use xlink:href="#a"/><use xlink:href="#b"/></g></svg>

<svg xmlns="http://www.w3.org/2000/svg" version="1.1" xmlns:xlink="http://www.w3.org/1999/xlink" preserveAspectRatio="none" x="0px" y="0px" width="108px" height="104px" viewBox="0 0 108 104">
<defs>
<g id="Layer0_0_FILL">
<path fill="#FFFFFF" stroke="none" d="
M 31.55 63.3
L 0 37.9 0 103.45 85.8 103.45 53 79.7 19.1 101.85 31.55 63.3
M 54.9 0
L 67.45 38.5 107.9 40.5 75.2 64.35 85.8 103.45 107.95 103.45 107.95 0 54.9 0
M 40.5 37.85
L 54.9 0 0 0 0 37.9 40.5 37.85 Z"/>
</g>

<path id="Layer0_0_1_STROKES" stroke="#CCCCCC" stroke-width="1" stroke-linejoin="round" stroke-linecap="round" fill="none" d="
M 0 37.9
L 40.5 37.85 54.9 0
M 0 37.9
L 31.55 63.3 19.1 101.85 53 79.7 85.8 103.45 75.2 64.35 107.9 40.5 67.45 38.5 54.9 0"/>
</defs>

<g transform="matrix( 1, 0, 0, 1, 0,0) ">
<use xlink:href="#Layer0_0_FILL"/>

<use xlink:href="#Layer0_0_1_STROKES"/>
</g>
</svg>
